X:658
T:Reel 658
M:4/4
K:Gmaj
L:1/8
G2BG DGBG|FDDC DA,B,A,| (3GG,G Bd cdBg|| (3gfe dc BGAB:||2 (3fed ef dggf|gdBG DGBG|F2AF cFAF|G2BG DGBd|cAdc BGGB|g2bg dgbg|fgag fdef|gdbg e2dc|BGAG EGG2|g2dg gbag|fgag fdef|gddc B2ag|fdef g2ga| (3bag  (3gfe dgag|fdcA BGAF|DGFA BGAg|fdcA BGAF|
